!!!OTL: VOLL ZAERTLICHKEIT WILL ICH DER DIRNE SAGEN
!!!ARE: Europa, Mitteleuropa, Deutschland
!!!SCT: F0514A
!!!YEM: Copyright 1995, estate of Helmut Schaffrath.
**kern
*ICvox
*Ivox
*M4/4
*k[]
*C:
{4G
=1
8.c
16d
8.e
16d
8.c
16B
8.c
16A
=2
2G
8E}
{8G
8G
8G
=3
4A
4d
4c
4B
=4
4c
2r}
{4G
=5
8.c
16d
8.e
16d
8.c
16B
8.c
16A
=6
2G
8E}
{8G
8G
8G
=7
4A
4d
4c
4B
=8
2c
4r}
{4c
=9
8.B
16c
4.d
8G
8G
8G
=10
8.c
16d
8.e
16d
4c}
{4c
=11
8.B
16c
4.d
8G
8G
8G
=12
8.c
16d
8.e
16d
4c}
{4G
=13
8.c
16d
8.e
16d
8.c
16B
8c
8A
=14
4.G
8F
8E}
{8G
8G
8G
=15
4A
4d
8.c
16B
8.A
16B
=16
4c
2r}
{4c
=17
8.B
16c
4.d
8G
8G
8G
=18
8.c
16d
8.e
16d
4c}
{4c
=19
8.B
16c
4.d
8G
8G
8G
=20
8.c
16d
8.e
16d
4c}
{4G
=21
8.c
16d
8.e
16d
8.c
16B
8c
8A
=22
4.G
8F
8E}
{8G
8G
8G
=23
4A
4d
8.c
16B
8.A
16B
=24
4c
2r}
==
!!!AGN: Studenten - Lied, Liebe
!!!ONB: ESAC (Essen Associative Code) Database: FINK
!!!AMT: simple quadruple
!!!AIN: vox
!!!EED: Helmut Schaffrath
!!!EEV: 1.0
*-
